; generated by PrusaSlicer 2.6.0-beta2+win64 on 2023-05-31 at 22:00:12 UTC


;
;

;
;
; 

; external perimeters extrusion width = 0.90mm
; perimeters extrusion width = 0.90mm
; infill extrusion width = 0.90mm
; solid infill extrusion width = 0.90mm
; top infill extrusion width = 0.80mm
; first layer extrusion width = 0.80mm

M73 P0 R184
;TYPE:Custom
G90 ; use absolute coordinates
M83 ; extruder relative mode
M104 S170 ; set extruder temp for bed leveling
M140 S60 ; set bed temp
M109 R170 ; wait for bed leveling temp
M190 S60 ; wait for bed temp
G28 ; home all without mesh bed level
G29 ; mesh bed leveling 
M104 S250 ; set extruder temp
G92 E0.0
G1 Y-2.0 X179 F2400
G1 Z3 F720
M109 S250 ; wait for extruder temp

; intro line
G1 X170 F1000
G1 Z0.2 F720
G1 X110.0 E8.0 F900
G1 X40.0 E10.0 F700
G92 E0.0

M221 S95 ; set flow
G21 ; set units to millimeters
G90 ; use absolute coordinates
M83 ; use relative distances for extrusion
M900 K0.2 ; Filament gcode LA 1.5
; ; Filament gcode LA 1.0
M107
;LAYER_CHANGE
;Z:0.4
;HEIGHT:0.4
;BEFORE_LAYER_CHANGE
G92 E0.0
;0.4


G1 Z.4 F4800
;AFTER_LAYER_CHANGE
;0.4
G1 E-.01 F2400
G1 X65.093 Y73.104 F4800
G1 E.05 F1500
;TYPE:Skirt/Brim
;WIDTH:0.8
G1 F1200
G1 X66.607 Y71.9 E.09189
G1 X67.683 Y71.243 E.05989
G1 X70.175 Y70.113 E.12999
G1 X71.595 Y69.702 E.07023
G1 X77.086 Y68.943 E.26334
G1 X77.953 Y68.898 E.04124
G1 X97.712 Y69.525 E.93914
G1 X107.581 Y70.799 E.47273
G1 X108.469 Y70.997 E.04322
G1 X112.857 Y72.393 E.21875
G1 X114.684 Y73.424 E.09966
G1 X115.729 Y74.338 E.06595
G1 X116.647 Y75.395 E.06651
G1 X117.544 Y76.767 E.07787
G1 X118.188 Y78.186 E.07403
G1 X118.981 Y80.999 E.13884
G1 X119.157 Y81.985 E.04758
G1 X119.763 Y89.589 E.36238
G1 X119.763 Y90.405 E.03876
G1 X119.157 Y98.018 E.36281
G1 X118.982 Y98.996 E.0472
G1 X118.148 Y101.947 E.14568
G1 X117.55 Y103.222 E.0669
G1 X116.558 Y104.737 E.08603
G1 X115.734 Y105.658 E.05871
G1 X114.58 Y106.665 E.07276
G1 X112.86 Y107.606 E.09314
G1 X108.618 Y108.957 E.21149
G1 X107.584 Y109.199 E.05045
G1 X97.714 Y110.473 E.47277
G1 X78.889 Y111.077 E.89476
G1 X77.089 Y111.055 E.08552
G1 X71.526 Y110.286 E.26679
G1 X70.177 Y109.886 E.06684
G1 X67.658 Y108.744 E.13139
G1 X66.613 Y108.102 E.05826
G1 X65.05 Y106.861 E.09481
G1 X64.113 Y105.866 E.06493
G1 X63.037 Y104.364 E.08777
G1 X62.452 Y103.282 E.05843
G1 X61.356 Y100.505 E.14183
G1 X61.031 Y99.207 E.06357
G1 X60.034 Y90.588 E.41219
G1 X60.034 Y89.406 E.05615
G1 X61.031 Y80.79 E.41204
G1 X61.356 Y79.493 E.06352
G1 X62.452 Y76.716 E.14183
G1 X63.057 Y75.607 E.06001
G1 X64.114 Y74.133 E.08617
G1 X65.01 Y73.191 E.06176
G1 X65.523 Y73.679 F4800
G1 F1200
G1 X67.052 Y72.459 E.09293
G1 X67.978 Y71.893 E.05156
G1 X70.47 Y70.763 E.12999
G1 X71.693 Y70.409 E.06048
G1 X77.183 Y69.651 E.26328
G1 X77.93 Y69.611 E.03554
G1 X97.689 Y70.238 E.93914
G1 X107.488 Y71.507 E.4694
G1 X108.252 Y71.677 E.03718
G1 X112.64 Y73.074 E.21877
G1 X114.214 Y73.961 E.08583
G1 X115.258 Y74.875 E.06592
G1 X116.049 Y75.786 E.05732
G1 X116.946 Y77.158 E.07787
G1 X117.501 Y78.379 E.06372
G1 X118.293 Y81.192 E.13883
G1 X118.445 Y82.041 E.04097
G1 X119.051 Y89.645 E.36238
G1 X119.051 Y90.348 E.0334
G1 X118.445 Y97.961 E.36281
G1 X118.295 Y98.803 E.04063
G1 X117.467 Y101.735 E.14474
G1 X116.951 Y102.832 E.05759
G1 X115.973 Y104.328 E.08491
G1 X115.263 Y105.121 E.05057
G1 X114.124 Y106.115 E.07182
G1 X112.643 Y106.925 E.08019
G1 X108.179 Y108.343 E.22251
G1 X107.49 Y108.491 E.03348
G1 X97.691 Y109.76 E.4694
G1 X78.903 Y110.362 E.893
G1 X77.186 Y110.348 E.08157
G1 X71.633 Y109.58 E.26631
G1 X70.471 Y109.235 E.05758
G1 X67.956 Y108.095 E.13118
G1 X67.057 Y107.542 E.05014
G1 X65.5 Y106.307 E.09441
G1 X64.694 Y105.45 E.05589
G1 X63.62 Y103.952 E.08756
G1 X63.116 Y103.02 E.05033
G1 X62.02 Y100.242 E.14187
G1 X61.74 Y99.125 E.05471
G1 X60.744 Y90.506 E.41218
G1 X60.744 Y89.488 E.04836
G1 X61.74 Y80.872 E.41204
G1 X62.02 Y79.756 E.05466
G1 X63.116 Y76.978 E.14187
G1 X63.637 Y76.023 E.05168
G1 X64.694 Y74.549 E.08617
G1 X65.44 Y73.766 E.05138
G1 X65.952 Y74.253 F4800
G1 F1200
G1 X67.496 Y73.019 E.0939
G1 X68.273 Y72.544 E.04326
G1 X70.765 Y71.413 E.13001
G1 X71.791 Y71.117 E.05073
G1 X77.281 Y70.358 E.26329
G1 X77.907 Y70.325 E.02978
G1 X97.667 Y70.952 E.93919
G1 X107.394 Y72.215 E.46597
G1 X108.035 Y72.358 E.0312
G1 X112.424 Y73.754 E.2188
G1 X113.743 Y74.499 E.07196
G1 X114.788 Y75.413 E.06595
G1 X115.452 Y76.176 E.04805
G1 X116.348 Y77.548 E.07785
G1 X116.814 Y78.573 E.05349
G1 X117.606 Y81.386 E.13883
G1 X117.733 Y82.098 E.03436
G1 X118.339 Y90.292 E.39033
G1 X117.733 Y97.904 E.36276
G1 X117.607 Y98.61 E.03407
G1 X116.785 Y101.523 E.14379
G1 X116.352 Y102.443 E.0483
G1 X115.387 Y103.919 E.08378
G1 X114.792 Y104.584 E.04239
G1 X113.668 Y105.566 E.07091
G1 X112.426 Y106.245 E.06724
G1 X108.209 Y107.589 E.21026
G1 X107.397 Y107.783 E.03966
G1 X97.668 Y109.046 E.46606
G1 X77.882 Y109.674 E.94043
G1 X71.741 Y108.874 E.2942
G1 X70.766 Y108.585 E.04831
G1 X68.255 Y107.446 E.13099
G1 X67.5 Y106.983 E.04207
G1 X65.951 Y105.753 E.09396
G1 X65.274 Y105.034 E.04692
G1 X64.203 Y103.539 E.08737
G1 X63.781 Y102.757 E.04221
G1 X62.684 Y99.98 E.14184
G1 X62.45 Y99.043 E.04588
G1 X61.453 Y90.424 E.41219
G1 X61.453 Y89.57 E.04057
G1 X62.45 Y80.954 E.41204
G1 X62.684 Y80.018 E.04583
G1 X63.78 Y77.241 E.14183
G1 X64.217 Y76.439 E.04339
G1 X65.275 Y74.965 E.08619
G1 X65.869 Y74.34 E.04096
G1 E-.007 F2400
;WIPE_START
G1 F3840
G1 X65.873 Y74.337 E-.003
;WIPE_END
G1 X77.423 Y105.203 F4800
G1 E.038 F1500
;TYPE:External perimeter
G1 F1200
G1 X72.498 Y104.523 E.23619
G1 X70.175 Y103.47 E.12117
G1 X68.806 Y102.384 E.08301
G1 X67.855 Y101.057 E.07756
G1 X66.824 Y98.445 E.1334
G1 X65.848 Y89.997 E.404
G1 X66.824 Y81.553 E.40381
G1 X67.855 Y78.942 E.13336
G1 X68.805 Y77.617 E.07745
G1 X70.176 Y76.527 E.08321
G1 X72.496 Y75.475 E.12102
G1 X77.828 Y74.739 E.2557
G1 X97.493 Y75.363 E.93468
G1 X106.758 Y76.584 E.44395
G1 X110.948 Y77.918 E.2089
G1 X111.811 Y78.674 E.0545
G1 X112.595 Y79.877 E.06821
G1 X113.339 Y82.521 E.13048
G1 X113.934 Y89.997 E.35628
G1 X113.339 Y97.483 E.35675
G1 X112.596 Y100.122 E.13024
G1 X111.812 Y101.326 E.06825
G1 X110.95 Y102.082 E.05447
G1 X106.759 Y103.415 E.20893
G1 X97.494 Y104.635 E.44394
G1 X77.827 Y105.259 E.93477
G1 X77.542 Y105.22 E.01367
G1 X77.081 Y104.48 F4800
G1 E-.007 F2400
;WIPE_START
G1 F3840
G1 X77.537 Y105.219 E-.003
;WIPE_END
G1 X79.987 Y104.071 F4800
G1 E.038 F1500
;TYPE:Perimeter
G1 F1200
G1 X79.978 Y104.476 E.01924
G1 X77.865 Y104.543 E.10043
G1 X74.325 Y104.055 E.16976
G1 X74.337 Y103.946 E.00521
G1 X74.309 Y104.052 E.00521
G1 X72.698 Y103.83 E.07726
G1 X70.55 Y102.856 E.11204
G1 X69.328 Y101.887 E.07409
G1 X68.487 Y100.713 E.06861
G1 X68.37 Y100.418 E.01508
G1 X68.696 Y100.235 E.01776
G1 X69.438 Y101.214 E.05836
G1 X71.082 Y102.342 E.09472
G1 X74.367 Y103.671 E.16834
G1 X74.37 Y103.641 E.00143
G1 X79.868 Y104.061 E.26195
G1 E-.007 F2400
;WIPE_START
G1 F3840
G1 X79.869 Y104.066 E-.003
;WIPE_END
G1 X88.821 Y104.196 F4800
G1 E.038 F1500
G1 F1200
G1 X88.8 Y103.776 E.01998
G1 X100.912 Y102.911 E.57686
G1 X107.141 Y101.498 E.30343
G1 X109.209 Y100.271 E.11423
G1 X110.368 Y98.916 E.08471
G1 X111.278 Y96.938 E.10343
G1 X111.982 Y93.062 E.18715
G1 X112.175 Y89.999 E.1458
G1 X111.982 Y86.939 E.14566
G1 X111.278 Y83.065 E.18705
G1 X110.368 Y81.085 E.10352
G1 X109.205 Y79.727 E.08494
G1 X107.149 Y78.505 E.11362
G1 X100.914 Y77.091 E.30372
G1 X88.68 Y76.218 E.58267
G1 X88.702 Y75.799 E.01993
G1 X97.435 Y76.076 E.41508
G1 X106.601 Y77.283 E.4392
G1 X110.589 Y78.553 E.19883
G1 X111.266 Y79.146 E.04275
G1 X111.937 Y80.176 E.0584
G1 X112.633 Y82.647 E.12196
G1 X113.218 Y89.997 E.35027
M73 P0 R183
G1 X112.632 Y97.357 E.35075
G1 X111.938 Y99.824 E.12175
G1 X111.267 Y100.854 E.0584
G1 X110.591 Y101.447 E.04272
G1 X106.603 Y102.715 E.1988
G1 X97.436 Y103.922 E.43925
G1 X88.941 Y104.192 E.40377
G1 E-.007 F2400
;WIPE_START
G1 F3840
G1 X88.939 Y104.187 E-.003
;WIPE_END
G1 X68.692 Y79.775 F4800
G1 E.038 F1500
G1 F1200
G1 X68.366 Y79.592 E.01776
G1 X68.486 Y79.286 E.01561
G1 X69.328 Y78.114 E.06856
G1 X70.552 Y77.141 E.07428
G1 X72.697 Y76.169 E.11187
G1 X77.866 Y75.455 E.24789
G1 X80.029 Y75.524 E.10281
G1 X80.038 Y75.93 E.01929
G1 X74.317 Y76.364 E.27256
G1 X74.316 Y76.352 E.00057
G1 X71.081 Y77.66 E.16577
G1 X69.438 Y78.79 E.09473
G1 X68.764 Y79.679 E.053
G1 E-.007 F2400
;WIPE_START
G1 F3840
G1 X68.759 Y79.678 E-.003
;WIPE_END
G1 X82.233 Y103.526 F4800
G1 E.038 F1500
;TYPE:External perimeter
G1 F1200
G1 X74.442 Y102.931 E.3712
G1 X71.422 Y101.709 E.15477
G1 X69.938 Y100.691 E.08549
G1 X68.823 Y99.22 E.08769
G1 X67.578 Y96.11 E.15914
G1 X66.889 Y90.001 E.29205
G1 X67.578 Y83.892 E.29205
G1 X68.823 Y80.784 E.15905
G1 X69.938 Y79.313 E.08769
G1 X71.422 Y78.293 E.08555
G1 X74.442 Y77.071 E.15477
G1 X82.256 Y76.476 E.37229
G1 X100.809 Y77.8 E.88362
G1 X106.881 Y79.176 E.29577
G1 X108.739 Y80.281 E.1027
G1 X109.761 Y81.474 E.07463
G1 X110.592 Y83.281 E.09449
G1 X111.272 Y87.025 E.18077
G1 X111.459 Y89.999 E.14156
G1 X111.272 Y92.975 E.14166
G1 X110.591 Y96.722 E.18092
G1 X109.76 Y98.527 E.0944
G1 X108.743 Y99.717 E.07436
G1 X106.873 Y100.827 E.10331
G1 X100.807 Y102.202 E.29548
G1 X82.352 Y103.521 E.87896
G1 X81.823 Y104.213 F4800
G1 E-.007 F2400
;WIPE_START
G1 F3840
G1 X82.347 Y103.521 E-.003
;WIPE_END
G1 X80.34 Y104.281 F4800
G1 E.038 F1500
;TYPE:Gap fill
;WIDTH:1.06221
G1 F1200
G1 X81.595 Y104.309 E.08153
;WIDTH:1.00595
G1 X82.288 Y104.322 E.04242
G1 X83.521 Y104.259 E.07557
;WIDTH:1.09504
G1 X85.987 Y104.132 E.16577
;WIDTH:1.18413
G1 X88.454 Y104.004 E.18048
G1 E-.007 F2400
;WIPE_START
G1 F3840
G1 X88.449 Y104.004 E-.003
;WIPE_END
G1 X103.709 Y102.69 F4800
G1 E.038 F1500
;WIDTH:0.266942
G1 F1200
G1 X104.635 Y102.524 E.01133
;WIDTH:0.352044
G1 X105.56 Y102.358 E.01664
;WIDTH:0.437146
G1 X106.486 Y102.193 E.02198
G1 X106.896 Y102.081 E.00993
;WIDTH:0.36839
G1 X107.347 Y101.955 E.0088
;WIDTH:0.464894
G1 X107.809 Y101.748 E.01277
;WIDTH:0.561397
G1 X108.272 Y101.541 E.01604
;WIDTH:0.6579
G1 X108.734 Y101.333 E.01928
;WIDTH:0.754403
G1 X109.196 Y101.126 E.02251
;WIDTH:0.850906
G1 X109.659 Y100.918 E.02583
G1 E-.007 F2400
;WIPE_START
G1 F3840
G1 X109.654 Y100.92 E-.003
;WIPE_END
G1 X110.036 Y99.633 F4800
G1 E.038 F1500
;TYPE:Solid infill
;WIDTH:0.908631
G1 F1200
G1 X111.109 Y100.705 E.08301
G1 E-.007 F2400
;WIPE_START
G1 F3840
G1 X111.105 Y100.701 E-.003
;WIPE_END
G1 X111.185 Y99.248 F4800
G1 E.038 F1500
;TYPE:Gap fill
;WIDTH:1.05471
G1 F1200
G1 X111.432 Y98.576 E.04614
;WIDTH:0.968723
G1 X111.68 Y97.904 E.04207
;WIDTH:0.882739
G1 X111.927 Y97.231 E.038
;WIDTH:0.796758
G1 X112.012 Y96.665 E.02707
;WIDTH:0.718417
G1 X112.127 Y95.781 E.03751
;WIDTH:0.629109
G1 X112.242 Y94.897 E.03222
;WIDTH:0.539801
G1 X112.357 Y94.013 E.02692
;WIDTH:0.450493
G1 X112.472 Y93.129 E.02162
;WIDTH:0.361184
G1 X112.585 Y91.561 E.02879
;WIDTH:0.412055
G1 X112.696 Y89.997 E.03402
G1 X112.474 Y86.887 E.06766
;WIDTH:0.361587
G1 X112.415 Y86.429 E.00847
;WIDTH:0.450794
G1 X112.3 Y85.546 E.02162
;WIDTH:0.540001
G1 X112.185 Y84.662 E.02693
;WIDTH:0.629208
G1 X112.07 Y83.779 E.03219
;WIDTH:0.718415
G1 X111.954 Y82.896 E.03748
;WIDTH:0.782609
G1 X111.928 Y82.773 E.00583
;WIDTH:0.839343
G1 X111.68 Y82.098 E.03604
;WIDTH:0.925451
G1 X111.431 Y81.424 E.04013
;WIDTH:1.01156
G1 X111.183 Y80.749 E.04428
G1 X111.64 Y80.353 F4800
;TYPE:Solid infill
;WIDTH:0.903615
G1 F1200
G1 X110.315 Y79.028 E.10193
G1 X110.277 Y79.016 E.00217
G1 X109.941 Y79.763 E.04456
G1 X110.225 Y80.094 E.02373
G1 X110.794 Y80.664 E.04381
G1 E-.007 F2400
;WIPE_START
G1 F3840
G1 X110.79 Y80.66 E-.003
;WIPE_END
G1 X109.66 Y79.083 F4800
G1 E.038 F1500
;TYPE:Gap fill
;WIDTH:0.850953
G1 F1200
G1 X109.199 Y78.876 E.02572
;WIDTH:0.75466
G1 X108.738 Y78.668 E.0225
;WIDTH:0.658368
G1 X108.277 Y78.461 E.01925
;WIDTH:0.562075
G1 X107.816 Y78.254 E.01601
;WIDTH:0.465782
G1 X107.355 Y78.047 E.01277
;WIDTH:0.369491
G1 X106.899 Y77.919 E.00894
;WIDTH:0.439621
G1 X106.485 Y77.807 E.01009
G1 X105.549 Y77.639 E.02238
;WIDTH:0.353695
G1 X104.613 Y77.472 E.01694
;WIDTH:0.267768
G1 X103.677 Y77.305 E.01151
G1 E-.007 F2400
;WIPE_START
G1 F3840
G1 X103.682 Y77.306 E-.003
;WIPE_END
G1 X88.335 Y75.99 F4800
G1 E.038 F1500
;WIDTH:1.18421
G1 F1200
G1 X85.915 Y75.866 E.17705
;WIDTH:1.09715
G1 X83.495 Y75.741 E.16302
;WIDTH:1.01008
G1 X82.286 Y75.679 E.07443
G1 X81.414 Y75.696 E.05362
;WIDTH:1.07539
G1 X80.391 Y75.719 E.06736
G1 E-.007 F2400
;WIPE_START
G1 F3840
G1 X80.396 Y75.719 E-.003
;WIPE_END
G1 X68.771 Y80.229 F4800
G1 E.038 F1500
;WIDTH:0.923501
G1 F1200
G1 X68.141 Y80.374 E.03602
G1 X67.592 Y81.745 E.08229
G1 X67.5 Y82.109 E.02092
;WIDTH:0.842382
G1 X67.408 Y82.473 E.01889
;WIDTH:0.742814
G1 X67.316 Y82.837 E.01641
;WIDTH:0.643245
G1 X67.223 Y83.201 E.01393
;WIDTH:0.543677
G1 X67.131 Y83.564 E.0114
;WIDTH:0.444109
G1 X67.078 Y83.787 E.00546
G1 X66.369 Y89.997 E.14896
G1 X67.078 Y96.215 E.14915
;WIDTH:0.393727
G1 X67.131 Y96.437 E.00467
;WIDTH:0.493051
G1 X67.223 Y96.8 E.01014
;WIDTH:0.592376
G1 X67.315 Y97.163 E.01262
;WIDTH:0.691701
G1 X67.407 Y97.527 E.01513
;WIDTH:0.791026
G1 X67.499 Y97.89 E.01757
;WIDTH:0.890352
G1 X67.591 Y98.253 E.02004
;WIDTH:0.947099
G1 X68.146 Y99.636 E.08538
G1 X68.779 Y99.779 E.03718
M106 S76.5
;LAYER_CHANGE
;Z:0.8
;HEIGHT:0.4
;BEFORE_LAYER_CHANGE
G92 E0.0
;0.8


G1 Z.8 F4800
;AFTER_LAYER_CHANGE
;0.8
G1 X77.491 Y104.683
;TYPE:Perimeter
;WIDTH:0.9
G1 F2400
G1 X72.63 Y104.005 E.26581
G1 X70.458 Y103.019 E.12918
G1 X69.203 Y102.021 E.08684
G1 X68.341 Y100.815 E.08028
G1 X67.872 Y99.627 E.06917
G1 X68.243 Y99.418 E.02306
G1 X69.536 Y101.125 E.11598
G1 X71.146 Y102.23 E.10576
G1 X74.301 Y103.508 E.18435
G1 X82.224 Y104.115 E.43035
G1 X100.846 Y102.791 E1.01108
G1 X107.075 Y101.386 E.34583
G1 X109.117 Y100.183 E.12836
G1 X110.247 Y98.863 E.09411
G1 X111.14 Y96.927 E.11547
G1 X111.84 Y93.084 E.21155
G1 X112.035 Y89.999 E.16741
G1 X111.84 Y86.917 E.16725
G1 X111.14 Y83.077 E.21139
G1 X110.247 Y81.139 E.11556
G1 X109.117 Y79.821 E.09402
G1 X107.076 Y78.616 E.12836
G1 X100.846 Y77.211 E.34588
G1 X82.379 Y75.9 E1.00265
G1 X82.403 Y75.421 E.02597
G1 X94.565 Y75.811 E.65901
G1 X97.372 Y75.881 E.15207
G1 X105.27 Y76.926 E.43147
G1 X106.603 Y77.087 E.07272
G1 X110.673 Y78.373 E.23116
G1 X111.39 Y78.997 E.05148
G1 X112.085 Y80.054 E.06851
G1 X112.791 Y82.534 E.13965
G1 X113.385 Y89.997 E.40546
G1 X112.791 Y97.466 E.40578
G1 X112.085 Y99.945 E.1396
G1 X111.389 Y101.003 E.06859
G1 X110.673 Y101.626 E.0514
G1 X106.596 Y102.914 E.23156
G1 X98.742 Y103.953 E.42906
G1 X97.375 Y104.117 E.07456
G1 X80.598 Y104.655 E.90908
G1 X77.792 Y104.725 E.15201
G1 X77.61 Y104.7 E.00995
G1 E-.007
;WIPE_START
G1 F3840
G1 X77.605 Y104.699 E-.003
;WIPE_END
G1 X68.238 Y80.592 F4800
G1 E.038 F1500
G1 X67.867 Y80.384 E.02304
G1 X68.341 Y79.183 E.06993
G1 X69.203 Y77.979 E.0802
G1 X70.459 Y76.979 E.08695
G1 X72.63 Y75.993 E.12914
G1 X77.788 Y75.273 E.28206
G1 X82.316 Y75.419 E.24536
G1 X82.327 Y75.88 E.02497
G1 X74.301 Y76.494 E.43594
G1 X71.146 Y77.772 E.18435
G1 X69.535 Y78.88 E.10589
G1 X68.311 Y80.497 E.10983
G1 E-.007 F2400
;WIPE_START
G1 F3840
G1 X68.306 Y80.496 E-.003
;WIPE_END
G1 X82.226 Y103.299 F4800
G1 E.038 F1500
;TYPE:External perimeter
G1 F1200
G1 X74.489 Y102.706 E.42025
G1 X71.534 Y101.509 E.17267
G1 X70.105 Y100.528 E.09387
G1 X69.035 Y99.116 E.09595
G1 X67.816 Y96.07 E.17769
G1 X67.132 Y90.001 E.33077
G1 X67.816 Y83.932 E.33077
G1 X69.036 Y80.888 E.1776
G1 X70.105 Y79.476 E.09591
G1 X71.534 Y78.493 E.09393
G1 X74.49 Y77.296 E.17272
G1 X82.225 Y76.705 E.42013
G1 X100.727 Y78.018 E1.00455
G1 X106.772 Y79.382 E.33562
G1 X108.587 Y80.453 E.11413
G1 X109.555 Y81.583 E.08058
G1 X110.358 Y83.325 E.10388
G1 X111.031 Y87.017 E.20325
G1 X111.22 Y89.999 E.16182
G1 X111.031 Y92.985 E.16204
G1 X110.358 Y96.679 E.20335
G1 X109.555 Y98.419 E.10379
G1 X108.587 Y99.551 E.08067
G1 X106.772 Y100.62 E.11408
G1 X100.727 Y101.984 E.33562
G1 X82.346 Y103.29 E.99799
G1 X81.816 Y103.985 F4800
G1 X77.378 Y105.49
G1 F1200
G1 X72.4 Y104.795 E.27221
G1 X70.03 Y103.719 E.14096
G1 X68.608 Y102.587 E.09844
G1 X67.62 Y101.207 E.09192
